svg/team-sec1-1.svg

<svg width="1293" height="363" viewBox="0 0 1293 363" fill="none" xmlns="http://www.w3.org/2000/svg">
<path d="M992 238C1000.25 233.796 1008.07 229.159 1015.67 223.833C1022.67 218.922 1032.1 213.286 1034.44 204.389C1037.29 193.59 1038.19 182.318 1039 171.222C1040.36 152.649 1041 134.267 1041 115.667C1041 107.09 1037.93 132.646 1038 141.222C1038.15 158.495 1046.01 173.1 1050.5 189.333C1053.8 201.258 1060.15 207.518 1068.78 215.778C1076.36 223.041 1082.85 228.77 1093.61 230.445C1098.77 231.247 1104.33 231.903 1109.56 232C1113.24 232.068 1114.31 231.491 1110 232.222C1097.81 234.292 1087.32 239.522 1077.56 247C1048.73 269.077 1040.13 307.131 1035 341.222C1034.22 346.388 1034 351.402 1034 356.611C1034 362.391 1035.93 345.202 1036.44 339.445C1038.22 319.417 1038 299.305 1038 279.222C1038 269.322 1034.41 259.953 1028.44 252C1025.27 247.763 1020.39 240.719 1015 239.222C1010.69 238.026 992.325 229.024 990 236" stroke="#4D4D4D" stroke-width="3" stroke-linecap="round"/>
<path d="M61 99.0001C72.0267 91.9553 77.726 85.8054 84.3333 74.889C88.3955 68.1776 91.0931 60.7224 92.4444 53.0001C93.0481 49.5504 93 41.1216 93 49.2223C93 55.4499 93.7712 61.5352 96.0556 67.389C98.9108 74.7054 104.008 82.3873 111.778 84.7779C112.133 84.8873 116.431 85.1146 115.333 86.0557C112.283 88.6701 108.62 90.3159 105.778 93.2223C101.882 97.2072 100.266 102.806 98 107.778C95.9006 112.385 93.1672 116.61 91.5556 121.445C89.8206 126.649 91.3863 121.692 91.7778 119C92.4725 114.224 92.3418 108.614 90.5 104.111C87.9759 97.9412 82.2347 97.0001 76.2222 97.0001C74.6868 97.0001 61.3688 98.3689 65 102" stroke="#4D4D4D" stroke-width="3" stroke-linecap="round"/>
<path d="M632 45.0001C640.534 31.0169 645.802 19.0452 648.944 3.33346C650.395 -3.92167 647 18.0458 647 25.4446C647 33.7115 649.442 34.5964 656.556 36.2224C663.237 37.7495 655.506 37.6712 654 38.4446C647.805 41.6256 645.027 50.8355 643.5 56.9446C642.566 60.682 643 67.1453 643 58.9446C643 52.2409 640.303 35.6975 631 45.0001" stroke="#4D4D4D" stroke-width="3" stroke-linecap="round"/>
<path d="M1128 144C1133.54 140.528 1139.46 134.771 1145 132" stroke="#4D4D4D" stroke-width="3" stroke-linecap="round"/>
<path d="M1153 123L1162 114" stroke="#4D4D4D" stroke-width="3" stroke-linecap="round"/>
<path d="M1126 108C1130.22 112.901 1134.01 116.259 1139 120" stroke="#4D4D4D" stroke-width="3" stroke-linecap="round"/>
<path d="M1158 142C1161.04 146.067 1162.94 149.588 1165 154" stroke="#4D4D4D" stroke-width="3" stroke-linecap="round"/>
<path d="M673 340C675.997 336.942 678.692 333.647 682 331" stroke="#4D4D4D" stroke-width="3" stroke-linecap="round"/>
<path d="M664 349C661.498 352.728 659.197 356.804 656 360" stroke="#4D4D4D" stroke-width="3" stroke-linecap="round"/>
<path d="M650 334C652.811 335.253 660.524 337.047 662 340" stroke="#4D4D4D" stroke-width="3" stroke-linecap="round"/>
<path d="M675 353C677.533 355.533 679.469 358.469 682 361" stroke="#4D4D4D" stroke-width="3" stroke-linecap="round"/>
<path d="M549 30.0001C552.79 34.7726 559.908 36.3622 563 41.0001" stroke="#4D4D4D" stroke-width="3" stroke-linecap="round"/>
<path d="M569 48.0001C573.459 50.9052 578.636 53.5448 580 59.0001" stroke="#4D4D4D" stroke-width="3" stroke-linecap="round"/>
<path d="M573 42.0001C574.669 37.9477 578.021 34.9795 581 32.0001" stroke="#4D4D4D" stroke-width="3" stroke-linecap="round"/>
<path d="M555 54.0001C551.39 58.5951 548.049 63.9508 544 68.0001" stroke="#4D4D4D" stroke-width="3" stroke-linecap="round"/>
<path d="M6 136C14.7816 127.6 30 113.893 30 99.7224C30 92.7164 29.1108 114.586 32.7778 120.556C36.588 126.758 44.543 129 51.5 129C53.0491 129 54.0628 128.665 51.7778 129.222C48.2118 130.092 45.1673 133.393 43 136.222C36.9173 144.164 36.1753 154.81 31.5556 163.389C30.0589 166.169 31 160.601 31 159.445C31 155.089 31.0871 150.955 29 147C26.4714 142.209 4.1615 133.516 2 140" stroke="#4D4D4D" stroke-width="3" stroke-linecap="round"/>
<path d="M1256 225C1267.6 221.596 1275.43 217.521 1277.22 205C1278.64 195.047 1278 204.873 1278 209C1278 214.743 1279.82 223.225 1285.78 225.778C1286.71 226.178 1287.97 227 1289 227C1289.99 227 1291.47 225.514 1291.33 225.611C1286.42 229.12 1281.02 231.198 1277 236.111C1274.66 238.97 1274 250.471 1274 246.778C1274 239.915 1273.29 232.956 1267 228.667C1262.33 225.481 1255.1 227.15 1250 228" stroke="#4D4D4D" stroke-width="3" stroke-linecap="round"/>
</svg>

<svg xmlns="http://www.w3.org/2000/svg" width="1293" height="363" fill="none"><path stroke="#4D4D4D" stroke-linecap="round" stroke-width="3" d="M992 238c8.25-4.204 16.07-8.841 23.67-14.167 7-4.911 16.43-10.547 18.77-19.444 2.85-10.799 3.75-22.071 4.56-33.167 1.36-18.573 2-36.955 2-55.555 0-8.577-3.07 16.979-3 25.555.15 17.273 8.01 31.878 12.5 48.111 3.3 11.925 9.65 18.185 18.28 26.445 7.58 7.263 14.07 12.992 24.83 14.667 5.16.802 10.72 1.458 15.95 1.555 3.68.068 4.75-.509.44.222-12.19 2.07-22.68 7.3-32.44 14.778-28.83 22.077-37.43 60.131-42.56 94.222-.78 5.166-1 10.18-1 15.389 0 5.78 1.93-11.409 2.44-17.166 1.78-20.028 1.56-40.14 1.56-60.223 0-9.9-3.59-19.269-9.56-27.222-3.17-4.237-8.05-11.281-13.44-12.778-4.31-1.196-22.675-10.198-25-3.222M61 99c11.027-7.045 16.726-13.195 23.333-24.111 4.063-6.711 6.76-14.167 8.111-21.889.604-3.45.556-11.878.556-3.778 0 6.228.771 12.313 3.056 18.167 2.855 7.316 7.952 14.998 15.722 17.389.355.11 4.653.337 3.555 1.278-3.05 2.614-6.713 4.26-9.555 7.166-3.896 3.985-5.512 9.584-7.778 14.556-2.1 4.607-4.833 8.832-6.444 13.667-1.735 5.204-.17.247.222-2.445.694-4.776.564-10.386-1.278-14.889-2.524-6.17-8.265-7.11-14.278-7.11C74.687 97 61.37 98.368 65 102m567-57c8.534-13.983 13.802-25.955 16.944-41.667C650.395-3.922 647 18.046 647 25.445c0 8.267 2.442 9.151 9.556 10.777 6.681 1.527-1.05 1.45-2.556 2.223-6.195 3.18-8.973 12.39-10.5 18.5-.934 3.737-.5 10.2-.5 2 0-6.704-2.697-23.248-12-13.945m497 99c5.54-3.472 11.46-9.229 17-12m8-9 9-9m-36-6c4.22 4.901 8.01 8.259 13 12m19 22c3.04 4.067 4.94 7.588 7 12M673 340c2.997-3.058 5.692-6.353 9-9m-18 18c-2.502 3.728-4.803 7.804-8 11m-6-26c2.811 1.253 10.524 3.047 12 6m13 13c2.533 2.533 4.469 5.469 7 8M549 30c3.79 4.773 10.908 6.362 14 11m6 7c4.459 2.905 9.636 5.545 11 11m-7-17c1.669-4.052 5.021-7.02 8-10m-26 22c-3.61 4.595-6.951 9.95-11 14M6 136c8.782-8.4 24-22.107 24-36.278 0-7.006-.89 14.864 2.778 20.834C36.588 126.758 44.543 129 51.5 129c1.55 0 2.563-.335.278.222-3.566.87-6.61 4.171-8.778 7-6.083 7.942-6.825 18.588-11.444 27.167-1.497 2.78-.556-2.788-.556-3.944 0-4.356.087-8.49-2-12.445-2.529-4.791-24.838-13.484-27-7m1254 85c11.6-3.404 19.43-7.479 21.22-20 1.42-9.953.78-.127.78 4 0 5.743 1.82 14.225 7.78 16.778.93.4 2.19 1.222 3.22 1.222.99 0 2.47-1.486 2.33-1.389-4.91 3.509-10.31 5.587-14.33 10.5-2.34 2.859-3 14.36-3 10.667 0-6.863-.71-13.822-7-18.111-4.67-3.186-11.9-1.517-17-.667"/></svg>
